!!!COM: Vivaldi, Antonio
!!!OTL: Concerto a violino solo, No. 5
!!!XEN: Violin Concerto No. 5
!!!OTP: La Tempesta di Mare
!!!OTA: The Storm at Sea
!!!OPR: Il Cimento dell'armonia e dell'inventione
!!!XEN: The Contest of Harmony and Invention
!!!OPS: Opus 8
!!!ONM: No. 5
!!!OMV: Movement 2.
!!!YEC: Copyright 1996, Center for Computer Assisted Research in the Humanities
!!!YEM: Rights to all derivative electronic formats reserved.
!!!YEM: Refer to licensing agreement for important restrictions.
!!!OMD: Largo
**kern	**kern	**kern	**kern	**kern	**Bnum
*Icello	*Iviola	*Ivioln	*Ivioln	*Ivioln	*Icemba
*Icemba	*	*	*	*	*
*ICstr	*ICstr	*ICstr	*ICstr	*ICstr	*ICklav
*ICklav	*	*	*	*	*
!cello	!viola 	!violino 2	!violino 1	!violino principale	!continuo
!basso continuo	!	!	!	!	!
*clefF4	*clefC3	*clefG2	*clefG2	*clefG2	*
*k[b-e-a-]	*k[b-e-a-]	*k[b-e-a-]	*k[b-e-a-]	*k[b-e-a-]	*k[b-e-a-]
*c:	*c:	*c:	*c:	*c:	*c:
*M4/4	*M4/4	*M4/4	*M4/4	*M4/4	*M4/4
=1-	=1-	=1-	=1-	=1-	=1-
8C\L	4.en\	8gg\L	8bb-\L	8bb-\L	7 n
8c\	.	16.g\L	16.b-\L	16.b-\L	.
.	.	32f\JJk	32a-\JJk	32a-\JJk	.
8c\	.	8en\L	8g\L	8g\L	.
8C\J	8e\	8gg\J	8bb-\J	8bb-\J	.
4FF/	4c\	4ff\	4aa-\	8aa-\L	.
.	.	.	.	(8cc\	.
!	!	!	!	! Amsterdam print has an erroneously has G5 here.	!
*	*	*	*	*strophe	*
*	*	*	*	*^	*
*	*	*	*	*S/S	*S/A	*
4r	4r	4r	4r	8ff\	8gg\Y	.
*	*	*	*	*S/fin	*S/fin	*
*	*	*	*	*v	*v	*
*	*	*	*	*S-	*
.	.	.	.	8aa-\J)	.
=2	=2	=2	=2	=2	=2
2r	2r	2r	2r	32ccc\LLL	.
.	.	.	.	(32fff\	.
.	.	.	.	32eee-\)	.
.	.	.	.	(32ddd\	.
.	.	.	.	32ccc\)	.
.	.	.	.	(32bb-\	.
.	.	.	.	32aa-\)	.
.	.	.	.	(32gg\JJJ	.
.	.	.	.	16ff\LL)	.
.	.	.	.	(16cc\	.
.	.	.	.	16ff\	.
.	.	.	.	16gg\JJ)	.
8BB-\L	4.d\	8ff/L	8aa-\L	8aa-\L	7
8B-\	.	16.d/L	16.f\L	16.f\L	.
.	.	32c/JJk	32e-\JJk	32e-\JJk	.
8B-\	.	8B-/L	8d\L	8d\L	.
8BB-\J	8d\	8ff/J	8aa-\J	8aa-\J	.
=3	=3	=3	=3	=3	=3
4EE-/	4B-/	4ee-\	4gg\	(16gg\LL	.
.	.	.	.	16ee-\	.
.	.	.	.	16b-\	.
.	.	.	.	16ee-\JJ)	.
4r	4r	4r	4r	(32gg\LLL	.
.	.	.	.	32aa-\	.
.	.	.	.	32bb-\	.
.	.	.	.	32aa-\J	.
.	.	.	.	16gg\	.
.	.	.	.	16ff\JJ)	.
2r	2r	2r	2r	(16ee-\LL	.
.	.	.	.	16b-\	.
.	.	.	.	16g\	.
.	.	.	.	16b-\JJ)	.
.	.	.	.	(32ee-\LLL	.
.	.	.	.	32ff\	.
.	.	.	.	32gg\	.
.	.	.	.	32aa-\J	.
.	.	.	.	16bb-\	.
.	.	.	.	16gg\JJ)	.
=4	=4	=4	=4	=4	=4
8EE-/L	4.G/	8b-/L	8dd-/L	8dd-/L	b7
8E-/	.	16.B-/L	16.g/L	16.g/L	.
*	*	*strophe	*	*	*
*	*	*^	*	*	*
*	*	*S/S	*S/A	*	*	*
.	.	32A-/JJk	32A/JJk	32f/JJk	32f/JJk	.
*	*	*S/fin	*S/fin	*	*	*
*	*	*v	*v	*	*	*
*	*	*S-	*	*	*
8E-/	.	8G/L	8e-/L	8e-/L	.
8EE-/J	8G/	8b-/J	8dd-/J	8dd-/J	.
4AA-/	4E-/	4a-/	4cc\	8cc\L	.
.	.	.	.	8ff\	.
4r	4r	4r	4r	8aa-\	.
.	.	.	.	8ccc\J	.
=5	=5	=5	=5	=5	=5
8r	1r	1r	1r	[4bbn\	.
16G\LL	.	.	.	.	n
16F\JJ	.	.	.	.	.
8G/L	.	.	.	16bb\LL]	.
.	.	.	.	(32ddd\L	.
.	.	.	.	32ccc\	.
8GG/J	.	.	.	32bb\	.
.	.	.	.	32aa-\	.
.	.	.	.	32gg\	.
.	.	.	.	32ff\JJJ)	.
8r	.	.	.	8ee-P/	.
16F\LL	.	.	.	[8dd-p\	b6
16E-\JJ	.	.	.	.	.
8F/L	.	.	.	16dd-\LL]	.
.	.	.	.	(32aa-\L	.
.	.	.	.	32gg\	.
8FF/J	.	.	.	32ff\	.
.	.	.	.	32ee-\	.
.	.	.	.	32dd-\	.
.	.	.	.	32cc\JJJ)	.
=6	=6	=6	=6	=6	=6
*	*	*	*	*strophe	*
*	*	*	*	*^	*
*	*	*	*	*S/S	*S/A	*
8r	1r	1r	1r	[4ff#\	4ff#\	.
16D/LL	.	.	.	.	.	#
16C/JJ	.	.	.	.	.	.
8D/L	.	.	.	16ff#]\LL	16ff#\LL	.
.	.	.	.	(32ff#\L	(32ff#\L	.
.	.	.	.	32gg\	32gg\	.
*	*	*	*	*S/fin	*S/fin	*
*	*	*	*	*v	*v	*
*	*	*	*	*S-	*
8DD/J	.	.	.	32aan\	.
.	.	.	.	32bbn\	.
.	.	.	.	32ccc\	.
.	.	.	.	32ddd\JJJ)	.
8GG/L	.	.	.	8bb\L	n
8C/	.	.	.	16ccc\L	.
.	.	.	.	16cc\JJ	.
8G/	.	.	.	8.ddt\L	.
8GG/J	.	.	.	.	.
.	.	.	.	16cc\Jk	.
=7	=7	=7	=7	=7	=7
16C\LL	16r	16r	16r	4cc\	.
16C\	16c\LL	16c/LL	16c/LL	.	.
!!  Dynamic appears in next measure in source, out of alignment with other parts.
16E-\	16e-\	16e-/	16e-/	.	.
16G\JJ	16g\JJ	16g/JJ	16g/JJ	.	.
16c\LL	16cc\LL	16cc/LL	16cc/LL	4r	.
16G\	16g\	16g/	16g/	.	.
16E-\	16e-\	16e-/	16e-/	.	.
16C\JJ	16c\JJ	16c/JJ	16c/JJ	.	.
4GG/	4G/	4G/	4G/	(32bn\LLL	n
.	.	.	.	32cc\	.
.	.	.	.	32cc\	.
.	.	.	.	32dd\JJJ	.
.	.	.	.	32dd\LLL	.
.	.	.	.	32ee-\	.
.	.	.	.	32ee-\	.
.	.	.	.	32ff\JJJ)	.
4r	4r	4r	4r	(32ff\LLL	.
.	.	.	.	32gg\	.
.	.	.	.	32gg\	.
.	.	.	.	32aa-\JJJ	.
.	.	.	.	32aa-\LLL	.
.	.	.	.	32cc\	.
.	.	.	.	32cc\	.
.	.	.	.	32b\JJJ)	.
=8	=8	=8	=8	=8	=8
16r	16r	16r	16r	4bn\	.
16GG/LL	16G/LL	16G/LL	16G/LL	.	.
16BBn/	16Bn/	16Bn/	16Bn/	.	.
16D/JJ	16d/JJ	16d/JJ	16d/JJ	.	.
16G/LL	16g\LL	16g/LL	16g/LL	4r	.
16D/	16d\	16d/	16d/	.	.
16BB/	16B\	16B/	16B/	.	.
16GG/JJ	16G\JJ	16G/JJ	16G/JJ	.	.
4C/	4c\	4c/	4c/	(32cc\LLL	.
.	.	.	.	32dd-\	.
.	.	.	.	32dd-\	.
.	.	.	.	32ddn\JJJ	.
.	.	.	.	32dd\LLL	.
.	.	.	.	32ee-\	.
.	.	.	.	32ee-\	.
.	.	.	.	32een\JJJ)	.
4r	4r	4r	4r	(32ee\LLL	.
.	.	.	.	32ff\	.
.	.	.	.	32ff\	.
.	.	.	.	32gg\JJJ	.
.	.	.	.	32gg\LLL	.
.	.	.	.	32aa-\	.
.	.	.	.	32aa-\	.
.	.	.	.	32bb-\JJJ)	.
=9	=9	=9	=9	=9	=9
16r	16r	16r	16r	4een\	.
16C\LL	16c\LL	16c/LL	16c/LL	.	n
16En\	16en\	16en/	16en/	.	.
16G\JJ	16g\JJ	16g/JJ	16g/JJ	.	.
16c\LL	16cc\LL	16cc/LL	16cc/LL	4r	.
16G\	16g\	16g/	16g/	.	.
16E\	16e\	16e/	16e/	.	.
16C\JJ	16c\JJ	16c/JJ	16c/JJ	.	.
4FF/	4f\	4f/	4f/	(32aa-\LLL	.
.	.	.	.	32bb-\	.
.	.	.	.	32bb-\	.
.	.	.	.	32ccc\JJJ	.
.	.	.	.	32ccc\LLL	.
.	.	.	.	32aa-\	.
.	.	.	.	32aa-\	.
.	.	.	.	32ff\JJJ)	.
4r	4r	4r	4r	(32ff\LLL	.
.	.	.	.	32aa-\	.
.	.	.	.	32aa-\	.
.	.	.	.	32ccc\JJJ	.
.	.	.	.	32ccc\LLL	.
.	.	.	.	32ee-x\	.
.	.	.	.	32ee-x\	.
.	.	.	.	32dd-x\JJJ)	.
=10	=10	=10	=10	=10	=10
16r	16r	16r	16r	[4dd-\	.
16BB-\LL	16B-\LL	16B-/LL	16B-/LL	.	b
16D-\	16d-\	16d-/	16d-/	.	.
16F\JJ	16f\JJ	16f/JJ	16f/JJ	.	.
16B-\LL	16b-\LL	16b-/LL	16b-/LL	16dd-\LL]	.
16F\	16f\	16f/	16f/	(16a-\	.
16D-\	16d-\	16d-/	16d-/	16dd-\	.
16BB-\JJ	16B-\JJ	16B-/JJ	16B-/JJ	16ff\JJ)	.
16r	16r	16r	16r	[4ddn\	.
16BB-\LL	16B-\LL	16B-/LL	16B-/LL	.	7 n
16Dn\	16dn\	16dn/	16dn/	.	.
16F\JJ	16f\JJ	16f/JJ	16f/JJ	.	.
16B-\LL	16b-\LL	16b-/LL	16b-/LL	16dd\LL]	.
16F\	16f\	16f/	16f/	(16a-\	.
16D\	16d\	16d/	16d/	16dd\	.
16BB-\JJ	16B-\JJ	16B-/JJ	16B-/JJ	16ff\JJ)	.
=11	=11	=11	=11	=11	=11
16r	16r	16r	16r	(16ee-\LL	.
16E-\LL	16e-\LL	16e-/LL	16e-/LL	16gg\)	.
16G\	16g\	16g/	16g/	(16bb-\	.
16B-\JJ	16b-\JJ	16b-/JJ	16b-/JJ	16gg\JJ)	.
16e-\LL	16ee-\LL	16ee-/LL	16ee-/LL	(16ee-\LL	.
16B-\	16b-\	16b-/	16b-/	16gg\)	.
16G\	16g\	16g/	16g/	(16bb-\	.
16E-\JJ	16e-\JJ	16e-/JJ	16e-/JJ	16gg\JJ)	.
16r	16r	16r	16r	8ffP/	.
16C\LL	16c\LL	16c/LL	16c/LL	.	.
16En\	16en\	16en/	16en/	[8eenp\	7 n
16G\JJ	16g\JJ	16g/JJ	16g/JJ	.	.
16c\LL	16cc\LL	16cc/LL	16cc/LL	16ee\LL]	.
16G\	16g\	16g/	16g/	(16b-\	.
16E\	16e\	16e/	16e/	16ee\	.
16C\JJ	16c\JJ	16c/JJ	16c/JJ	16gg\JJ)	.
=12	=12	=12	=12	=12	=12
16r	16r	16r	16r	(16ff\LL	.
16F\LL	16f\LL	16f/LL	16f/LL	16aa-\)	.
16A-\	16a-\	16a-/	16a-/	(16ccc\	.
16c\JJ	16cc\JJ	16cc/JJ	16cc/JJ	16aa-\JJ)	.
16f\LL	16ff\LL	16ff\LL	16ff\LL	(16ff\LL	.
16c\	16cc\	16cc\	16cc\	16aa-\)	.
16A-\	16a-\	16a-\	16a-\	(16ccc\	.
16F\JJ	16f\JJ	16f\JJ	16f\JJ	16aa-\JJ)	.
16r	16r	16r	16r	8ggP/	.
16D\LL	16d\LL	16d/LL	16d/LL	.	.
16F#\	16f#\	16f#/	16f#/	[8ff#p\	#
16An\JJ	16an\JJ	16an/JJ	16an/JJ	.	.
16d\LL	16dd\LL	16dd/LL	16dd/LL	16ff#\LL]	.
16A\	16a\	16a/	16a/	(16cc\	.
16F#\	16f#\	16f#/	16f#/	16ff#\	.
16D\JJ	16d\JJ	16d/JJ	16d/JJ	16aan\JJ)	.
=13	=13	=13	=13	=13	=13
16r	16r	16r	16r	(16gg\LL	.
16GG/LL	16G/LL	16G/LL	16G/LL	16bb-\)	.
16BB-/	16B-/	16B-/	16B-/	(16ddd\	.
!!  Natural in source conflicts with Bf in all other parts.  
16D/JJ	16d/JJ	16d/JJ	16d/JJ	16bb-\JJ)	.
16G/LL	16g\LL	16g/LL	16g/LL	(16gg\LL	.
16D/	16d\	16d/	16d/	16bb-\)	.
16BB-/	16B-\	16B-/	16B-/	(16ddd\	.
16GG/JJ	16G\JJ	16G/JJ	16G/JJ	16bb-\JJ)	.
2C/	2c\	2c/	2c/	(16aa-\LL	b6
.	.	.	.	16ccc\)	.
.	.	.	.	(16eee-\	.
.	.	.	.	16ccc\JJ)	.
.	.	.	.	(16aa-\LL	.
.	.	.	.	16ccc\)	.
.	.	.	.	(16eee-\	.
.	.	.	.	16gg\JJ)	.
=14	=14	=14	=14	=14	=14
2AA-/	2a-\	2cc\	2ff#\	2ff#\	6\
2GG;/	2d;\	2b;\	2gg;\	2gg;\	n
=15	=15	=15	=15	=15	=15
16r	16r	16r	16r	16r	.
16GG/LL	16G/LL	16G/LL	16G/LL	16G/LL	.
16BBn/	16Bn/	16Bn/	16Bn/	16Bn/	.
!!   This undoubted natural looks more like a flat in source.  
16D/JJ	16d/JJ	16d/JJ	16d/JJ	16d/JJ	.
16G/LL	16g\LL	16g/LL	16g/LL	16g/LL	.
16D/	16d\	16d/	16d/	16d/	.
16BB/	16B\	16B/	16B/	16B/	.
16GG/JJ	16G\JJ	16G/JJ	16G/JJ	16G/JJ	.
16r	16r	16r	16r	16r	.
16GG/LL	16G/LL	16G/LL	16G/LL	16G/LL	.
16BB/	16B/	16B/	16B/	16B/	.
16D/JJ	16d/JJ	16d/JJ	16d/JJ	16d/JJ	.
16G/LL	16g\LL	16g/LL	16g/LL	16g/LL	.
16D/	16d\	16d/	16d/	16d/	.
16BB/	16B\	16B/	16B/	16B/	.
16GG/JJ	16G\JJ	16G/JJ	16G/JJ	16G/JJ	.
=16	=16	=16	=16	=16	=16
2AA-/	2A-/	2c/	2f#/	2f#/	6\
2GG;/	2D;/	2Bn;/	2g;/	2g;/	n
==|!	==|!	==|!	==|!	==|!	==|!
*-	*-	*-	*-	*-	*-
!!!CDT: 1678/3/4/-1741/7/28
!!!OCY: Italia
!!!ODE: Count Wenzeslaus von Morzin of Bohemia; Count Wenceslas of Morzin
!!!ODT: 1725///
!!!OPC: Venezia; Venice
!!!AGN: concerto
!!!AST: baroque
!!!AMT: simple quadruple
!!!PPR: Michel-Charles Le Ce`ne
!!!PC#: Le Cene No. 520
!!!PDT: 1725///
!!!PPP: Amsterdam
!!!SCT: RV 253
!!!SMA1: The cooperation of the following libraries is gratefully acknowledged:
!!!SMA2: Saechsische Landesbibliothek, Dresden; Biblioteca Nazionale
!!!SMA3: Universitaria, Turin; Henry Watson Music Library, Manchester.
!!!YOR: New York: Dover Publications, Inc. 1995
!!!AIN: cello cemba viola violn
!!!EEV: 1.0
!!!RDT: 1994/4/15/
!!!YER: 1996/10/31/
!!!YEP: Center for Computer Assisted Research in the Humanities
!!!YEN: United States of America
!!!EFL: 2/3
!!!ENC: Edmund Correia, Jr.
!!!EED: Eleanor Selfridge-Field
